icons/desktop/40/bookmark-40.svg

<svg width="40" height="40" viewBox="0 0 40 40" fill="none" xmlns="http://www.w3.org/2000/svg">
<path fill-rule="evenodd" clip-rule="evenodd" d="M20.4987 1.59595C22.1477 1.59595 23.6055 2.58643 24.2155 4.11743L27.1911 11.594L36.2496 12.1799C37.8676 12.2849 39.2124 13.2977 39.7584 14.8225C40.3054 16.3514 39.9072 17.9908 38.7204 19.1018C38.2294 19.5608 37.7088 20.0236 37.1598 20.4856C35.3618 21.9986 33.4196 23.3556 31.3776 24.5266L33.5387 33.009C33.9407 34.586 33.3902 36.1783 32.1012 37.1643C31.3762 37.7193 30.5266 38.0002 29.6686 38.0002C28.9887 38.0002 28.3024 37.823 27.6686 37.4641C26.5437 36.8282 25.4318 36.1326 24.3649 35.4006C23.03 34.4847 21.7296 33.484 20.4987 32.4231C19.2679 33.4829 17.9682 34.4848 16.6334 35.4006C15.5664 36.1326 14.4548 36.8281 13.3288 37.4641C11.8969 38.2739 10.199 38.1591 8.89711 37.1633C7.60817 36.1774 7.05673 34.585 7.45863 33.0081L9.61977 24.5266C7.57694 23.3557 5.6364 21.9985 3.83754 20.4856C3.28854 20.0236 2.76797 19.5608 2.27797 19.1018C1.09106 17.9908 0.692902 16.3515 1.23988 14.8225C1.78592 13.2978 3.12998 12.2851 4.7477 12.1799L13.8073 11.594L16.7829 4.11743C17.3918 2.58655 18.8498 1.5961 20.4987 1.59595ZM20.4987 4.59692C20.2944 4.597 19.7958 4.65925 19.57 5.22681L16.2428 13.5852C16.0287 14.123 15.5238 14.4896 14.9459 14.5266L4.94106 15.175C4.34807 15.2131 4.1301 15.6492 4.0641 15.8342C3.99709 16.0224 3.88798 16.5015 4.3268 16.9124C4.78076 17.3363 5.26024 17.7637 5.7682 18.1907C7.7082 19.8227 9.82705 21.2573 12.0661 22.4543C12.6749 22.7793 12.983 23.4779 12.8121 24.1467L10.3659 33.7502C10.2201 34.325 10.5654 34.6625 10.7194 34.7815C10.8454 34.8775 11.2992 35.1678 11.8532 34.8538C12.9031 34.2598 13.9402 33.6119 14.9352 32.929C16.2211 32.046 17.473 31.0779 18.6549 30.053C19.1808 29.5961 19.8408 29.3685 20.4996 29.3684C21.1596 29.3684 21.8194 29.596 22.3444 30.053C23.5253 31.0779 24.7772 32.046 26.0641 32.928C27.0591 33.612 28.0962 34.2598 29.1461 34.8528C29.7011 35.1678 30.1549 34.8765 30.2799 34.7805C30.4349 34.6615 30.7802 34.3239 30.6334 33.7502L28.1871 24.1467C28.0173 23.4778 28.3253 22.7793 28.9332 22.4543C31.1722 21.2573 33.2911 19.8227 35.2301 18.1907C35.7381 17.7637 36.2186 17.3373 36.6715 16.9124C37.1102 16.5016 37.0022 16.0224 36.9342 15.8342C36.8682 15.6483 36.6491 15.2131 36.0563 15.175L26.0524 14.5266C25.4745 14.4886 24.9696 14.123 24.7555 13.5852L21.4284 5.22681C21.2014 4.65782 20.7027 4.59692 20.4987 4.59692Z" fill="black"/>
</svg>

<!-- This Source Code Form is subject to the terms of the Mozilla Public
   - License, v. 2.0. If a copy of the MPL was not distributed with this
   - file, You can obtain one at http://mozilla.org/MPL/2.0/. -->
<svg xmlns="http://www.w3.org/2000/svg" width="40" height="40" fill="context-fill" fill-opacity="context-fill-opacity" viewBox="0 0 40 40">
    <path fill-rule="evenodd" d="M20.499 1.596c1.649 0 3.107.99 3.717 2.521l2.975 7.477 9.059.586a3.95 3.95 0 0 1 3.508 2.643 3.96 3.96 0 0 1-1.038 4.279q-.736.69-1.56 1.384a39.6 39.6 0 0 1-5.782 4.04l2.16 8.483c.403 1.577-.148 3.17-1.437 4.155A4 4 0 0 1 29.67 38c-.68 0-1.367-.177-2-.536a44.543 44.543 0 0 1-7.17-5.041 44.7 44.7 0 0 1-7.17 5.041c-1.432.81-3.13.695-4.432-.3a3.93 3.93 0 0 1-1.438-4.156l2.16-8.481a39.6 39.6 0 0 1-7.341-5.425 3.96 3.96 0 0 1-1.038-4.28 3.95 3.95 0 0 1 3.508-2.642l9.06-.586 2.975-7.477a3.98 3.98 0 0 1 3.716-2.521m0 3c-.205.001-.703.063-.929.63l-3.327 8.36a1.5 1.5 0 0 1-1.297.94l-10.005.649a.97.97 0 0 0-.877.66.98.98 0 0 0 .263 1.077q.68.637 1.441 1.279a36.6 36.6 0 0 0 6.298 4.263c.609.325.917 1.024.746 1.693l-2.446 9.603c-.146.575.2.913.353 1.032.126.096.58.386 1.134.072a41.934 41.934 0 0 0 6.802-4.8 2.8 2.8 0 0 1 1.845-.686c.66 0 1.32.228 1.844.685a42 42 0 0 0 3.72 2.875 41 41 0 0 0 3.082 1.925 1.01 1.01 0 0 0 1.134-.072.955.955 0 0 0 .353-1.03l-2.446-9.604a1.5 1.5 0 0 1 .746-1.693 36.6 36.6 0 0 0 7.739-5.542c.438-.41.33-.89.262-1.078a.97.97 0 0 0-.878-.659l-10.004-.648a1.5 1.5 0 0 1-1.296-.942l-3.328-8.358c-.227-.57-.725-.63-.93-.63" clip-rule="evenodd" />
</svg>
